X:1111
L:1/8
M:4/4
K:D
 [DAf]2 [DAf]2 [DAf]3 a | gfed c/d/e/c/ A2 | dA fe/d/ eA gf/e/ | fg/a/ gf f2 e2 :: A>Bcd efgf | 
 edcB B2 ^A2 | f2 gf/e/ fb a/g/f/e/ | d2 c2 B2 z2 | [DAf]2 [DAf]2 [DAf]3 a | gfed c/d/e/c/ A2 | 
 dA fe/d/ eA gf/e/ | fe/d/ Ac d2 D2 :|

